Newaita-dark/.places-mint/32/folder-tar.svg

<?xml version="1.0" encoding="UTF-8"?>
<svg xmlns="http://www.w3.org/2000/svg" xmlns:xlink="http://www.w3.org/1999/xlink" width="32px" height="32px" viewBox="0 0 32 32" version="1.1">
<defs>
<linearGradient id="linear0" gradientUnits="userSpaceOnUse" x1="254" y1="233.5" x2="254" y2="254.666672" gradientTransform="matrix(0.062506,0,0,0.062506,-0.00000381506,13.438787)">
<stop offset="0" style="stop-color:rgb(0%,0%,0%);stop-opacity:0.27451;"/>
<stop offset="1" style="stop-color:rgb(0%,0%,0%);stop-opacity:0;"/>
</linearGradient>
<radialGradient id="radial0" gradientUnits="userSpaceOnUse" cx="450.908936" cy="189.579361" fx="450.908936" fy="189.579361" r="21.166656" gradientTransform="matrix(0.00000017417,-0.0781325,-0.140638,-0.000000101539,54.115213,63.595334)">
<stop offset="0" style="stop-color:rgb(0%,0%,0%);stop-opacity:0.313726;"/>
<stop offset="0.222222" style="stop-color:rgb(0%,0%,0%);stop-opacity:0.27451;"/>
<stop offset="1" style="stop-color:rgb(0%,0%,0%);stop-opacity:0;"/>
</radialGradient>
<radialGradient id="radial1" gradientUnits="userSpaceOnUse" cx="450.908936" cy="189.579361" fx="450.908936" fy="189.579361" r="21.166656" gradientTransform="matrix(-0.00000017417,0.0781325,0.140638,0.000000101539,-22.362178,-7.527477)">
<stop offset="0" style="stop-color:rgb(0%,0%,0%);stop-opacity:0.313726;"/>
<stop offset="0.222222" style="stop-color:rgb(0%,0%,0%);stop-opacity:0.27451;"/>
<stop offset="1" style="stop-color:rgb(0%,0%,0%);stop-opacity:0;"/>
</radialGradient>
<radialGradient id="radial2" gradientUnits="userSpaceOnUse" cx="450.908936" cy="189.579361" fx="450.908936" fy="189.579361" r="21.166656" gradientTransform="matrix(-0.00000017417,-0.0781325,0.140638,-0.000000101539,-22.362178,63.595334)">
<stop offset="0" style="stop-color:rgb(0%,0%,0%);stop-opacity:0.313726;"/>
<stop offset="0.222222" style="stop-color:rgb(0%,0%,0%);stop-opacity:0.27451;"/>
<stop offset="1" style="stop-color:rgb(0%,0%,0%);stop-opacity:0;"/>
</radialGradient>
<radialGradient id="radial3" gradientUnits="userSpaceOnUse" cx="450.908936" cy="189.579361" fx="450.908936" fy="189.579361" r="21.166656" gradientTransform="matrix(0.00000017417,0.0781325,-0.140638,0.000000101539,54.115211,-7.527477)">
<stop offset="0" style="stop-color:rgb(0%,0%,0%);stop-opacity:0.313726;"/>
<stop offset="0.222222" style="stop-color:rgb(0%,0%,0%);stop-opacity:0.27451;"/>
<stop offset="1" style="stop-color:rgb(0%,0%,0%);stop-opacity:0;"/>
</radialGradient>
<linearGradient id="linear1" gradientUnits="userSpaceOnUse" x1="254" y1="-147.5" x2="254" y2="-31.083334" gradientTransform="matrix(0.062506,0,0,0.062506,0.00000124975,13.438781)">
<stop offset="0" style="stop-color:rgb(64.313728%,64.313728%,64.313728%);stop-opacity:0;"/>
<stop offset="1" style="stop-color:rgb(100%,100%,100%);stop-opacity:0.196078;"/>
</linearGradient>
<linearGradient id="linear2" gradientUnits="userSpaceOnUse" x1="254" y1="233.5" x2="254" y2="-105.166656" gradientTransform="matrix(0.062506,0,0,0.062506,-0.00000181239,13.438783)">
<stop offset="0" style="stop-color:rgb(34.509805%,34.509805%,34.509805%);stop-opacity:0;"/>
<stop offset="1" style="stop-color:rgb(98.039216%,98.039216%,98.039216%);stop-opacity:0.196078;"/>
</linearGradient>
</defs>
<g id="surface1">
<path style=" stroke:none;fill-rule:nonzero;fill:url(#linear0);" d="M 3.96875 28.035156 L 27.785156 28.035156 L 27.785156 29.355469 L 3.96875 29.355469 Z M 3.96875 28.035156 "/>
<path style=" stroke:none;fill-rule:nonzero;fill:url(#radial0);" d="M 27.785156 28.035156 L 30.429688 28.035156 L 30.429688 26.710938 L 27.785156 26.710938 Z M 27.785156 28.035156 "/>
<path style=" stroke:none;fill-rule:nonzero;fill:url(#radial1);" d="M 3.96875 28.035156 L 1.324219 28.035156 L 1.324219 29.355469 L 3.96875 29.355469 Z M 3.96875 28.035156 "/>
<path style=" stroke:none;fill-rule:nonzero;fill:url(#radial2);" d="M 3.96875 28.035156 L 1.324219 28.035156 L 1.324219 26.710938 L 3.96875 26.710938 Z M 3.96875 28.035156 "/>
<path style=" stroke:none;fill-rule:nonzero;fill:url(#radial3);" d="M 27.785156 28.035156 L 30.429688 28.035156 L 30.429688 29.355469 L 27.785156 29.355469 Z M 27.785156 28.035156 "/>
<path style=" stroke:none;fill-rule:nonzero;fill:rgb(61.176473%,80.000001%,39.607844%);fill-opacity:1;" d="M 7.277344 4.21875 L 28.777344 4.21875 C 29.507812 4.21875 30.097656 4.8125 30.097656 5.542969 L 30.097656 10.503906 C 30.097656 11.234375 29.507812 11.828125 28.777344 11.828125 L 7.277344 11.828125 C 6.546875 11.828125 5.953125 11.234375 5.953125 10.503906 L 5.953125 5.542969 C 5.953125 4.8125 6.546875 4.21875 7.277344 4.21875 Z M 7.277344 4.21875 "/>
<path style=" stroke:none;fill-rule:nonzero;fill:url(#linear1);" d="M 7.277344 4.21875 L 28.777344 4.21875 C 29.507812 4.21875 30.097656 4.8125 30.097656 5.542969 L 30.097656 10.503906 C 30.097656 11.234375 29.507812 11.828125 28.777344 11.828125 L 7.277344 11.828125 C 6.546875 11.828125 5.953125 11.234375 5.953125 10.503906 L 5.953125 5.542969 C 5.953125 4.8125 6.546875 4.21875 7.277344 4.21875 Z M 7.277344 4.21875 "/>
<path style=" stroke:none;fill-rule:nonzero;fill:rgb(100%,100%,100%);fill-opacity:0.392157;" d="M 7.277344 4.304688 C 6.542969 4.304688 5.953125 4.894531 5.953125 5.628906 L 5.953125 5.792969 C 5.953125 5.058594 6.542969 4.46875 7.277344 4.46875 L 28.777344 4.46875 C 29.507812 4.46875 30.097656 5.058594 30.097656 5.792969 L 30.097656 5.628906 C 30.097656 4.894531 29.507812 4.304688 28.777344 4.304688 Z M 7.277344 4.304688 "/>
<path style=" stroke:none;fill-rule:nonzero;fill:rgb(12.941177%,12.941177%,12.941177%);fill-opacity:1;" d="M 7.277344 4.125 C 6.492188 4.125 5.859375 4.757812 5.859375 5.542969 L 5.859375 10.503906 C 5.859375 11.285156 6.492188 11.921875 7.277344 11.921875 L 28.777344 11.921875 C 29.558594 11.921875 30.191406 11.285156 30.191406 10.503906 L 30.191406 5.542969 C 30.191406 4.757812 29.558594 4.125 28.777344 4.125 Z M 7.277344 4.3125 L 28.777344 4.3125 C 29.457031 4.3125 30.003906 4.859375 30.003906 5.542969 L 30.003906 10.503906 C 30.003906 11.1875 29.457031 11.734375 28.777344 11.734375 L 7.277344 11.734375 C 6.59375 11.734375 6.046875 11.1875 6.046875 10.503906 L 6.046875 5.542969 C 6.046875 4.859375 6.59375 4.3125 7.277344 4.3125 Z M 7.277344 4.3125 "/>
<path style=" stroke:none;fill-rule:nonzero;fill:rgb(68.235296%,83.529413%,50.588238%);fill-opacity:1;" d="M 2.644531 6.863281 C 1.914062 6.863281 1.324219 7.457031 1.324219 8.1875 L 1.324219 26.710938 C 1.324219 27.445312 1.914062 28.035156 2.644531 28.035156 L 29.105469 28.035156 C 29.839844 28.035156 30.429688 27.445312 30.429688 26.710938 L 30.429688 10.171875 L 12.570312 10.171875 C 11.835938 10.171875 11.246094 9.582031 11.246094 8.851562 L 11.246094 6.863281 Z M 2.644531 6.863281 "/>
<path style=" stroke:none;fill-rule:nonzero;fill:url(#linear2);" d="M 2.644531 6.863281 C 1.914062 6.863281 1.324219 7.457031 1.324219 8.1875 L 1.324219 26.710938 C 1.324219 27.445312 1.914062 28.035156 2.644531 28.035156 L 29.105469 28.035156 C 29.839844 28.035156 30.429688 27.445312 30.429688 26.710938 L 30.429688 10.171875 L 12.570312 10.171875 C 11.835938 10.171875 11.246094 9.582031 11.246094 8.851562 L 11.246094 6.863281 Z M 2.644531 6.863281 "/>
<path style=" stroke:none;fill-rule:nonzero;fill:rgb(0%,0%,0%);fill-opacity:0.196078;" d="M 2.644531 28.035156 C 1.914062 28.035156 1.324219 27.445312 1.324219 26.710938 L 1.324219 26.546875 C 1.324219 27.277344 1.914062 27.867188 2.644531 27.867188 L 29.105469 27.867188 C 29.839844 27.867188 30.429688 27.277344 30.429688 26.546875 L 30.429688 26.710938 C 30.429688 27.445312 29.839844 28.035156 29.105469 28.035156 Z M 2.644531 28.035156 "/>
<path style=" stroke:none;fill-rule:nonzero;fill:rgb(100%,100%,100%);fill-opacity:0.392157;" d="M 2.644531 6.949219 C 1.914062 6.949219 1.324219 7.539062 1.324219 8.273438 L 1.324219 8.4375 C 1.324219 7.707031 1.914062 7.117188 2.644531 7.117188 L 11.246094 7.117188 L 11.246094 6.949219 Z M 2.644531 6.949219 "/>
<path style=" stroke:none;fill-rule:nonzero;fill:rgb(100%,100%,100%);fill-opacity:0.392157;" d="M 12.484375 10.339844 C 11.753906 10.339844 11.164062 9.75 11.164062 9.019531 L 11.164062 8.851562 C 11.164062 9.585938 11.753906 10.175781 12.484375 10.175781 L 30.429688 10.175781 L 30.429688 10.339844 Z M 12.484375 10.339844 "/>
<path style=" stroke:none;fill-rule:nonzero;fill:rgb(12.941177%,12.941177%,12.941177%);fill-opacity:1;" d="M 2.644531 6.769531 C 1.863281 6.769531 1.230469 7.40625 1.230469 8.1875 L 1.230469 26.710938 C 1.230469 27.496094 1.863281 28.128906 2.644531 28.128906 L 29.105469 28.128906 C 29.890625 28.128906 30.523438 27.496094 30.523438 26.710938 L 30.523438 9.984375 L 12.570312 9.984375 C 11.886719 9.984375 11.339844 9.4375 11.339844 8.757812 L 11.339844 6.769531 Z M 2.644531 6.960938 L 11.152344 6.960938 L 11.152344 8.757812 C 11.152344 9.539062 11.785156 10.171875 12.570312 10.171875 L 30.335938 10.171875 L 30.335938 26.710938 C 30.335938 27.394531 29.789062 27.941406 29.105469 27.941406 L 2.644531 27.941406 C 1.964844 27.941406 1.417969 27.394531 1.417969 26.710938 L 1.417969 8.1875 C 1.417969 7.503906 1.964844 6.960938 2.644531 6.960938 Z M 2.644531 6.960938 "/>
<path style=" stroke:none;fill-rule:nonzero;fill:rgb(54.509807%,76.47059%,29.019609%);fill-opacity:1;" d="M 12.570312 13.480469 C 11.835938 13.480469 11.246094 14.070312 11.246094 14.804688 L 11.246094 17.78125 L 13.230469 17.78125 L 13.230469 17.449219 C 13.230469 17.082031 13.527344 16.789062 13.890625 16.789062 C 14.257812 16.789062 14.554688 17.082031 14.554688 17.449219 L 14.554688 17.78125 L 17.199219 17.78125 L 17.199219 17.449219 C 17.199219 17.082031 17.496094 16.789062 17.859375 16.789062 C 18.226562 16.789062 18.523438 17.082031 18.523438 17.449219 L 18.523438 17.78125 L 20.507812 17.78125 L 20.507812 14.804688 C 20.507812 14.070312 19.917969 13.480469 19.183594 13.480469 Z M 11.246094 18.441406 L 11.246094 21.417969 C 11.246094 22.152344 11.835938 22.742188 12.570312 22.742188 L 19.183594 22.742188 C 19.917969 22.742188 20.507812 22.152344 20.507812 21.417969 L 20.507812 18.441406 L 18.523438 18.441406 L 18.523438 18.773438 C 18.523438 19.140625 18.226562 19.433594 17.859375 19.433594 C 17.496094 19.433594 17.199219 19.140625 17.199219 18.773438 L 17.199219 18.441406 L 14.554688 18.441406 L 14.554688 18.773438 C 14.554688 19.140625 14.257812 19.433594 13.890625 19.433594 C 13.527344 19.433594 13.230469 19.140625 13.230469 18.773438 L 13.230469 18.441406 Z M 11.246094 18.441406 "/>
<path style=" stroke:none;fill-rule:nonzero;fill:rgb(0%,0%,0%);fill-opacity:0.235294;" d="M 12.570312 13.480469 C 11.835938 13.480469 11.246094 14.070312 11.246094 14.804688 L 11.246094 17.78125 L 11.261719 17.78125 L 11.261719 15.042969 C 11.261719 14.308594 11.851562 13.71875 12.585938 13.71875 L 19.199219 13.71875 C 19.863281 13.71875 20.40625 14.199219 20.507812 14.832031 L 20.507812 14.804688 C 20.507812 14.070312 19.917969 13.480469 19.183594 13.480469 Z M 14.554688 17.539062 L 14.554688 17.78125 L 14.570312 17.78125 L 14.570312 17.6875 C 14.570312 17.636719 14.5625 17.585938 14.554688 17.539062 Z M 18.523438 17.539062 L 18.523438 17.78125 L 18.539062 17.78125 L 18.539062 17.6875 C 18.539062 17.636719 18.535156 17.585938 18.523438 17.539062 Z M 11.246094 18.441406 L 11.246094 21.417969 C 11.246094 21.492188 11.25 21.5625 11.261719 21.628906 L 11.261719 18.679688 L 13.230469 18.679688 L 13.230469 18.441406 Z M 14.554688 18.441406 L 14.554688 18.773438 C 14.554688 19.140625 14.257812 19.433594 13.890625 19.433594 C 13.578125 19.433594 13.3125 19.214844 13.246094 18.921875 L 13.246094 19.011719 C 13.246094 19.378906 13.542969 19.671875 13.910156 19.671875 C 14.273438 19.671875 14.570312 19.378906 14.570312 19.011719 L 14.570312 18.679688 L 17.199219 18.679688 L 17.199219 18.441406 Z M 18.523438 18.441406 L 18.523438 18.773438 C 18.523438 19.140625 18.226562 19.433594 17.859375 19.433594 C 17.546875 19.433594 17.28125 19.214844 17.214844 18.921875 L 17.214844 19.011719 C 17.214844 19.378906 17.511719 19.671875 17.878906 19.671875 C 18.246094 19.671875 18.539062 19.378906 18.539062 19.011719 L 18.539062 18.679688 L 20.507812 18.679688 L 20.507812 18.441406 Z M 18.523438 18.441406 "/>
<path style=" stroke:none;fill-rule:nonzero;fill:rgb(100%,100%,100%);fill-opacity:0.392157;" d="M 13.890625 16.796875 C 13.527344 16.796875 13.230469 17.089844 13.230469 17.457031 L 13.230469 17.699219 C 13.230469 17.332031 13.527344 17.039062 13.890625 17.039062 C 14.257812 17.039062 14.554688 17.332031 14.554688 17.699219 L 14.554688 17.457031 C 14.554688 17.089844 14.257812 16.796875 13.890625 16.796875 Z M 17.859375 16.796875 C 17.496094 16.796875 17.199219 17.089844 17.199219 17.457031 L 17.199219 17.699219 C 17.199219 17.332031 17.496094 17.039062 17.859375 17.039062 C 18.226562 17.039062 18.523438 17.332031 18.523438 17.699219 L 18.523438 17.457031 C 18.523438 17.089844 18.226562 16.796875 17.859375 16.796875 Z M 11.246094 17.789062 L 11.246094 18.03125 L 13.230469 18.03125 L 13.230469 17.789062 Z M 14.554688 17.789062 L 14.554688 18.03125 L 17.199219 18.03125 L 17.199219 17.789062 Z M 18.523438 17.789062 L 18.523438 18.03125 L 20.507812 18.03125 L 20.507812 17.789062 Z M 11.246094 21.425781 L 11.246094 21.667969 C 11.246094 22.402344 11.835938 22.992188 12.570312 22.992188 L 19.183594 22.992188 C 19.917969 22.992188 20.507812 22.402344 20.507812 21.667969 L 20.507812 21.425781 C 20.507812 22.160156 19.917969 22.75 19.183594 22.75 L 12.570312 22.75 C 11.835938 22.75 11.246094 22.160156 11.246094 21.425781 Z M 11.246094 21.425781 "/>
<path style="fill:none;stroke-width:11.338583;stroke-linecap:round;stroke-linejoin:round;stroke:rgb(12.941177%,12.941177%,12.941177%);stroke-opacity:1;stroke-miterlimit:4;" d="M 760.084936 815.119053 C 715.679725 815.119053 680.013838 850.784941 680.013838 895.190151 L 680.013838 1075.172973 L 800.002386 1075.172973 L 800.002386 1055.096149 C 800.002386 1032.893544 817.953428 1015.178699 839.919836 1015.178699 C 862.122441 1015.178699 880.073484 1032.893544 880.073484 1055.096149 L 880.073484 1075.172973 L 1039.979482 1075.172973 L 1039.979482 1055.096149 C 1039.979482 1032.893544 1057.930524 1015.178699 1079.896932 1015.178699 C 1102.099537 1015.178699 1120.05058 1032.893544 1120.05058 1055.096149 L 1120.05058 1075.172973 L 1240.039128 1075.172973 L 1240.039128 895.190151 C 1240.039128 850.784941 1204.37324 815.119053 1159.96803 815.119053 Z M 680.013838 1115.090423 L 680.013838 1295.073245 C 680.013838 1339.478456 715.679725 1375.144343 760.084936 1375.144343 L 1159.96803 1375.144343 C 1204.37324 1375.144343 1240.039128 1339.478456 1240.039128 1295.073245 L 1240.039128 1115.090423 L 1120.05058 1115.090423 L 1120.05058 1135.167247 C 1120.05058 1157.369853 1102.099537 1175.084697 1079.896932 1175.084697 C 1057.930524 1175.084697 1039.979482 1157.369853 1039.979482 1135.167247 L 1039.979482 1115.090423 L 880.073484 1115.090423 L 880.073484 1135.167247 C 880.073484 1157.369853 862.122441 1175.084697 839.919836 1175.084697 C 817.953428 1175.084697 800.002386 1157.369853 800.002386 1135.167247 L 800.002386 1115.090423 Z M 680.013838 1115.090423 " transform="matrix(0.016538,0,0,0.016538,0,0)"/>
</g>
</svg>

<svg xmlns="http://www.w3.org/2000/svg" width="32" height="32"><defs><linearGradient id="a" gradientUnits="userSpaceOnUse" x1="254" y1="233.5" x2="254" y2="254.667" gradientTransform="matrix(.0625 0 0 .0625 0 13.439)"><stop offset="0" stop-opacity=".275"/><stop offset="1" stop-opacity="0"/></linearGradient><radialGradient id="b" gradientUnits="userSpaceOnUse" cx="450.909" cy="189.579" fx="450.909" fy="189.579" r="21.167" gradientTransform="matrix(0 -.07813 -.14064 0 54.115 63.595)"><stop offset="0" stop-opacity=".314"/><stop offset=".222" stop-opacity=".275"/><stop offset="1" stop-opacity="0"/></radialGradient><radialGradient id="c" gradientUnits="userSpaceOnUse" cx="450.909" cy="189.579" fx="450.909" fy="189.579" r="21.167" gradientTransform="matrix(0 .07813 .14064 0 -22.362 -7.527)"><stop offset="0" stop-opacity=".314"/><stop offset=".222" stop-opacity=".275"/><stop offset="1" stop-opacity="0"/></radialGradient><radialGradient id="d" gradientUnits="userSpaceOnUse" cx="450.909" cy="189.579" fx="450.909" fy="189.579" r="21.167" gradientTransform="matrix(0 -.07813 .14064 0 -22.362 63.595)"><stop offset="0" stop-opacity=".314"/><stop offset=".222" stop-opacity=".275"/><stop offset="1" stop-opacity="0"/></radialGradient><radialGradient id="e" gradientUnits="userSpaceOnUse" cx="450.909" cy="189.579" fx="450.909" fy="189.579" r="21.167" gradientTransform="matrix(0 .07813 -.14064 0 54.115 -7.527)"><stop offset="0" stop-opacity=".314"/><stop offset=".222" stop-opacity=".275"/><stop offset="1" stop-opacity="0"/></radialGradient><linearGradient id="f" gradientUnits="userSpaceOnUse" x1="254" y1="-147.5" x2="254" y2="-31.083" gradientTransform="matrix(.0625 0 0 .0625 0 13.439)"><stop offset="0" stop-color="#a4a4a4" stop-opacity="0"/><stop offset="1" stop-color="#fff" stop-opacity=".196"/></linearGradient><linearGradient id="g" gradientUnits="userSpaceOnUse" x1="254" y1="233.5" x2="254" y2="-105.167" gradientTransform="matrix(.0625 0 0 .0625 0 13.439)"><stop offset="0" stop-color="#585858" stop-opacity="0"/><stop offset="1" stop-color="#fafafa" stop-opacity=".196"/></linearGradient><linearGradient id="h" gradientUnits="userSpaceOnUse" x1="254" y1="-147.5" x2="254" y2="233.5" gradientTransform="matrix(.0625 0 0 .0625 0 13.439)"><stop offset="0" stop-color="#a4a4a4" stop-opacity="0"/><stop offset="1" stop-color="#fff" stop-opacity=".196"/></linearGradient></defs><path d="M3.969 28.035h23.816v1.32H3.97zm0 0" fill="url(#a)"/><path d="M27.785 28.035h2.645v-1.324h-2.645zm0 0" fill="url(#b)"/><path d="M3.969 28.035H1.324v1.32H3.97zm0 0" fill="url(#c)"/><path d="M3.969 28.035H1.324v-1.324H3.97zm0 0" fill="url(#d)"/><path d="M27.785 28.035h2.645v1.32h-2.645zm0 0" fill="url(#e)"/><path d="M7.277 4.219h21.5c.73 0 1.32.593 1.32 1.324v4.96c0 .731-.59 1.325-1.32 1.325h-21.5c-.73 0-1.324-.594-1.324-1.324V5.543c0-.73.594-1.324 1.324-1.324zm0 0" fill="#7cb342"/><path d="M7.277 4.219h21.5c.73 0 1.32.593 1.32 1.324v4.96c0 .731-.59 1.325-1.32 1.325h-21.5c-.73 0-1.324-.594-1.324-1.324V5.543c0-.73.594-1.324 1.324-1.324zm0 0" fill="url(#f)"/><path d="M7.277 4.219a1.32 1.32 0 0 0-1.324 1.324v.164c0-.734.59-1.324 1.324-1.324h21.5c.73 0 1.32.59 1.32 1.324v-.164a1.32 1.32 0 0 0-1.32-1.324zm0 0" fill="#e6e6e6" fill-opacity=".588"/><path d="M7.277 4.125c-.785 0-1.418.633-1.418 1.418v4.96c0 .782.633 1.419 1.418 1.419h21.5c.782 0 1.414-.637 1.414-1.418V5.543c0-.785-.632-1.418-1.414-1.418zm0 .188h21.5c.68 0 1.227.546 1.227 1.23v4.96c0 .684-.547 1.231-1.227 1.231h-21.5c-.683 0-1.23-.546-1.23-1.23V5.543c0-.684.547-1.23 1.23-1.23zm0 0" fill="#212121"/><path d="M2.645 6.863c-.73 0-1.32.594-1.32 1.324v18.524c0 .734.59 1.324 1.32 1.324h26.46a1.32 1.32 0 0 0 1.325-1.324V10.17H12.57a1.32 1.32 0 0 1-1.324-1.32V6.864zm0 0" fill="#9ccc65"/><path d="M2.645 6.863c-.73 0-1.32.594-1.32 1.324v18.524c0 .734.59 1.324 1.32 1.324h26.46a1.32 1.32 0 0 0 1.325-1.324V10.17H12.57a1.32 1.32 0 0 1-1.324-1.32V6.864zm0 0" fill="url(#g)"/><path d="M2.645 28.035c-.73 0-1.32-.59-1.32-1.324v-.164c0 .73.59 1.32 1.32 1.32h26.46a1.32 1.32 0 0 0 1.325-1.32v.164a1.32 1.32 0 0 1-1.325 1.324zm0 0" fill-opacity=".196"/><path d="M2.645 6.863c-.73 0-1.32.594-1.32 1.324v.168c0-.734.59-1.324 1.32-1.324h8.601v-.168zm0 0M12.484 10.254c-.73 0-1.32-.59-1.32-1.32v-.168c0 .734.59 1.324 1.32 1.324H30.43v.164zm0 0" fill="#e6e6e6" fill-opacity=".937"/><path d="M2.645 6.77c-.782 0-1.415.636-1.415 1.418V26.71c0 .785.633 1.418 1.415 1.418h26.46c.786 0 1.418-.633 1.418-1.418V9.984H12.57c-.683 0-1.23-.546-1.23-1.226V6.77zm0 .19h8.507v1.798c0 .781.633 1.414 1.418 1.414h17.766V26.71c0 .684-.547 1.23-1.23 1.23H2.644c-.68 0-1.227-.546-1.227-1.23V8.188c0-.684.547-1.227 1.227-1.227zm0 0" fill="#212121"/><path d="M12.57 13.48a1.32 1.32 0 0 0-1.324 1.325v2.644h1.324v1.324h-1.324v2.645c0 .734.59 1.324 1.324 1.324h6.614a1.32 1.32 0 0 0 1.324-1.324v-2.645h-1.324V17.45h1.324v-2.644a1.32 1.32 0 0 0-1.324-1.325zm1.985 3.97h2.644v1.323h-2.644zm0 0" fill="#7cb342"/><path d="M12.57 13.48a1.32 1.32 0 0 0-1.324 1.325v2.644h1.324v1.324h-1.324v2.645c0 .734.59 1.324 1.324 1.324h6.614a1.32 1.32 0 0 0 1.324-1.324v-2.645h-1.324V17.45h1.324v-2.644a1.32 1.32 0 0 0-1.324-1.325zm1.985 3.97h2.644v1.323h-2.644zm0 0" fill="url(#h)"/><path d="M12.57 13.387c-.785 0-1.418.633-1.418 1.418v2.738h1.325v1.137h-1.325v2.738c0 .785.633 1.418 1.418 1.418h6.614c.785 0 1.418-.633 1.418-1.418V18.68h-1.325v-1.137h1.325v-2.738c0-.785-.633-1.418-1.418-1.418zm0 .187h6.614c.683 0 1.23.547 1.23 1.23v2.551H19.09v1.512h1.324v2.551c0 .684-.547 1.23-1.23 1.23H12.57c-.683 0-1.23-.546-1.23-1.23v-2.55h1.324v-1.513H11.34v-2.55c0-.684.547-1.23 1.23-1.23zm1.89 3.781v1.512h2.833v-1.512zm.188.188h2.457v1.137h-2.457zm0 0" fill="#212121"/></svg>
